!!!COM: Gomółka, Mikołaj
!!!CDT: ~1535-after 1591
!!!OTL: Zywot niepobożnégo
!!!OTL@LAT: Dixit iniustus
!!!AGn: Motet; Psalm
!!!SCn: Gom2036
!!!voices: 4
!!!CNT: Polish
!!!OCY: Poland
!!!LYR: Jan Kochanowski (1530-1584/08/22)
!!!GTL: Melodiae na Psałterz Polski
!!!EFL: 36/150
!!!PPR: Łazarz Andrysowicz
!!!PPP: Kraków
!!!PDT: 1580
!!!YEC: 2015 Marcin Konik
!!!ENC: Marcin Konik
!!!END: 2015/05/19
!!!EED: Marcin Konik
!!!EEV: 2015/05/19
!!!ONB: Translated from MusicXML and edited on 2015/03/06 by Marcin Konik
!!!CharacterEncoding: utf-8
!!muse2ps: i2I150v85,85,85,150Q16
**kern	**kern	**kern	**kern
*staff4	*staff3	*staff2	*staff1
*Ivox	*Ivox	*Ivox	*Ivox
*I"Bassus	*I"Tenor	*I"Altus	*I"Cantus
*I'B	*I'T	*I'A	*I'C
*clefF3	*clefC3	*clefC3	*clefC1
*k[b-]	*k[b-]	*k[b-]	*k[b-]
*M2/1	*M2/1	*M2/1	*M2/1
*met(C|)	*met(C|)	*met(C|)	*met(C|)
=1-	=1-	=1-	=1-
1F	1f	1a	1cc
2c	2e	2g	2cc
[2c	[2e	[2g	[2cc
=2	=2	=2	=2
2c]	2e]	2g]	2cc]
2A	2f	2a	2cc
2B-	2f	2d	2b-
2c	2e	2c	4a
.	.	.	4g
=3	=3	=3	=3
2F	2.f	2c	2a
2F	.	2a	2cc
.	4e	.	.
1B-	2d	2.f	1dd
.	2d	.	.
.	.	4g	.
=4	=4	=4	=4
2A	2e	2a	2cc
2F	2f	2a	1cc
1G	1d	2.g	.
.	.	.	2bi
.	.	4f	.
=5	=5	=5	=5
1C	1c	1e	1cc
=:|:	=:|:	=:|:	=:|:
1F	1c	1f	1a
=6	=6	=6	=6
2BB-	2d	2f	2b-
2BB-	2d	2f	2b-
2.F	2c	2f	2.a
.	2A	2c	.
4E	.	.	4g
=7	=7	=7	=7
4D	4B	2F	4f
4C	2c	.	4e
2D	.	2F	2f
.	4B	.	.
2C	2c	2G	2e
2F	2c	4F	2a
.	.	4G	.
=8	=8	=8	=8
2F	2F	4A	2a
.	.	4B-	.
2E	2G	4c	2g
.	.	4A	.
2D	2A	4B	2f
.	.	2c	.
2D	2F	.	2f
.	.	4B	.
=9	=9	=9	=9
1C	1G	1c	1e
1C	1c	1e	1g
=10	=10	=10	=10
2C	2c	2e	2g
2C	2c	2e	2g
4BB-	2d	2f	2b-
4C	.	.	.
4D	2d	2f	2b-
4E	.	.	.
=11	=11	=11	=11
1F	1c	1f	1a
1C	1c	1e	1g
=12	=12	=12	=12
2.D	2.A	2.d	2.f
4BB-	4B-	4d	4d
2C	2G	2c	2e
2D	2F	2B-	[2f
=	=	=	=
1C	1G	2.c	2f]
.	.	.	2e
.	.	4B-	.
=13	=13	=13	=13
0F	0F	0A	0f
==	==	==	==
*-	*-	*-	*-
